X:1
T:Title
%%score { ( 1 3 5 ) | ( 2 4 6 ) }
L:1/8
M:4/4
K:Eb
V:1 treble nm="Grand Piano"
V:3 treble 
V:5 treble 
V:2 bass 
V:4 bass 
V:6 bass 
V:1
 z4 z2[Q:1/4=100] B,2 | E3 D EFGA | B2 B-[FB] B2 G2 | [GB]3 [Ac] [EGB][EG][A,DF]E | %4
 [B,DF]2 [B,EG]2 [B,DF]2 B,2 | E3 D EFGA | B2 [DAB]2 [EGB]2 [Gc]2 | %7
 [Gd]>[Gc] [GB]>[Gc] [GB]2 [_G=A]2 | G6 [GB]2 | [FA]2 [EG]2 [FA]3 [_G=A] | %10
 [GB]>[FA] [EG]>[FA] [GB]2 G>B | F2 B2 B3 c |[M:25/32] d>dd3/2.c z3/2 z/4 | %13
[M:5/16] B,<B,[K:bass]B,/ |[M:4/4] z4 (5:4:5B,2[K:treble] G/ F/-F3/2E/ | %15
 z4 (5:4:5B,2 F/ F/-F3/2G/ | z4 (5:4:5D2 f/ d/-d3/2c/ | B4- B3/2-B/4[K:bass] z/4 z2 | %18
 z4 (5:4:5B,2[K:treble] G/ F/-F3/2E/ | z4 z2 (3:2:2F2 G | z4 (5:4:5[Ac]2 [GB]/ [Ac]/-[Ac]3/2[Ad]/ | %21
 e6- e/4 z/4 z/ z | (7:8:6B/B3/4B/ B/4-Be/ z4 |[M:3/4] [B,E]6 |] %24
V:2
 z4 z2 B,,2 | E,3 D, E,F,G,A, | B,2 [B,,A,]2 [E,G,E]2 [E,B,E]2 | [E,E]3 [E,E] z B, z G, | %4
 B,,2 B,,2 B,,2 B,,2 | E,3 D, E,F,G,A, | B,2 B,,2 E,2 [E,=A,]2 | %7
 [D,B,]>[D,=A,] [D,G,]>[D,A,] [D,B,]2 [D,C]2 | [G,B,]6 [B,,B,]2 | %9
 [B,,B,]2 [B,,B,]2 [B,,B,]3 [B,,B,] | [E,B,]>[E,B,] [E,B,]>[E,B,] [E,E]2 [E,B,E]>[E,G,E] | %11
 [B,D]2 [B,D]2 [B,D]3 [B,E] |[M:25/32] [F,B,F]>[F,B,F][F,=A,F]>[F,A,E] [B,,B,]2- [B,,B,]/4- | %13
[M:5/16] [B,,B,]/4 z/4 z/ z/ z |[M:4/4] z2 (3:2:2[E,G,]2 [E,G,] [E,G,]2 [E,G,B,]2 | %15
 z4 (5:4:5[F,A,]2[K:treble] D/ D/-D3/2E/ | z4 (5:4:5B,2 A/ A/-A3/2A/ | G4- G3/2-G/4 z/4 z2 | %18
 z2 (3:2:2[E,G,]2 [E,G,] [E,G,]2 [E,G,B,]2 | %19
 (5:4:5[F,A,B,]2 [F,A,B,]/ [F,A,B,]/-[F,A,B,]3/2[F,A,]/ z2 (3:2:2[A,B,D]2 [G,B,E] | %20
 (5:4:5[F,B,F]2 [B,,B,]/ [B,,B,]/-[B,,B,]3/2[B,,B,]/ z4 | %21
 (7:8:7[E,B,]3/2.E,/G,.E,/ C,3/2[K:treble][A,EB][A,EA] | %22
 (7:8:6B,/[B,EG]3/4[B,EG]/ [B,EG]/4-[B,EG][B,G]/[K:bass] z4 |[M:3/4] [E,G,]6 |] %24
V:3
 x8 | x8 | z2 .D2 z4 | x8 | x8 | x8 | x8 | x8 | x8 | x8 | x8 | x8 | %12
[M:25/32] z z/4 z z/4 z3/2 [DB]2- [DB]/4- |[M:5/16] [DB]/4 z/4 z/ z/ z[K:bass] | %14
[M:4/4] E4- E3/2-E/4[K:treble] z/4 z2 | (5:4:5E2 D/ D/-D3/2-[B,D-]/ D3/2-D/4 z/4 z2 | %16
 A4- A3/2-A/4 z/4 z2 | (5:4:5z2 E/ E/-E3/2E/ z4[K:bass] | E4- E3/2-E/4[K:treble] z/4 z2 | %19
 (5:4:5E2 D/ D/-D3/2-[B,D-]/ D2- D/4 z/4 z/ z | (5:4:5A2 [=EG]/ [FA]/-[FA]3/2[GB]/ z4 | %21
 (7:8:8G3/2-[B,G-]/[B,G-][B,G-]/ [CG-]3/2[Gd-]/d/c | z4 [EG]2- [EG]/4 z/4 z/ z |[M:3/4] x6 |] %24
V:4
 x8 | x8 | x8 | z4 E,2 E,2 | x8 | x8 | x8 | x8 | x8 | x8 | x8 | x8 |[M:25/32] x25/4 | %13
[M:5/16] x5/2 |[M:4/4] z z/ [E,G,]/- [E,G,]/4 z/4 z/ z z4 | %15
 (5:4:5[F,A,B,]2 [F,A,B,]/ [F,A,B,]/-[F,A,B,]3/2[F,A,]/ z4[K:treble] | F4- F3/2-F/4 z/4 z2 | %17
 (5:4:5z2 E,/ E,/-E,3/2E,/ z4 | z z/ [E,G,]/- [E,G,]/4 z/4 z/ z z4 | %19
 z4 [F,A,]2- [F,A,]/4 z/4 z/ z | z4 (5:4:5[B,,B,]2 [B,,B,]/ [B,,B,]/-[B,,B,]3/2[B,,B,]/ | %21
 x137/24[K:treble] x55/24 | [EG]3/4 z/4 z z2[K:bass] [B,,B,]2- [B,,B,]/4 z/4 z/ z |[M:3/4] x6 |] %24
V:5
 x8 | x8 | x8 | x8 | x8 | x8 | x8 | x8 | x8 | x8 | x8 | x8 |[M:25/32] x25/4 | %13
[M:5/16] x2[K:bass] x/ |[M:4/4] (5:4:5z2 B,/ B,/-B,3/2B,/ z4[K:treble] | x8 | %16
 (5:4:5z2 D/ D/-D3/2D/ z4 | z4 (5:4:5E2[K:bass] B,/ B,/-B,3/2B,/ | %18
 (5:4:5z2 B,/ B,/-B,3/2B,/ z4[K:treble] | z4 B,2- B,/4 z/4 z/ z | x8 | x8 | z4 z2 [DF]2- | %23
[M:3/4] [DF]3/4 z/4 z z2 z2 |] %24
V:6
 x8 | x8 | x8 | x8 | x8 | x8 | x8 | x8 | x8 | x8 | x8 | x8 |[M:25/32] x25/4 |[M:5/16] x5/2 | %14
[M:4/4] x8 | x28/5[K:treble] x12/5 | (5:4:5z2 B,/ B,/-B,3/2B,/ z4 | z4 E,3/2-E,/4 z/4 z2 | x8 | %19
 x8 | x8 | x137/24[K:treble] x55/24 | z4[K:bass] z2 [A,,A,]2- |[M:3/4] [A,,A,]3/4 z/4 z z2 z2 |] %24

